dist/svgs/crypto-icons/icons/rep.svg

<?xml version="1.0" encoding="UTF-8" standalone="yes"?>
<svg xmlns="http://www.w3.org/2000/svg" xmlns:xlink="http://www.w3.org/1999/xlink" width="512px" height="512px" viewBox="0 0 384 384" version="1.1">
  <g id="surface1">
    <path style=" stroke:none;fill-rule:nonzero;fill:rgb(0%,0%,0%);fill-opacity:1;" d="M 351.65625 275.660156 L 200.636719 5.019531 C 202.929688 0.90625 201.960938 -4.257812 198.339844 -7.265625 C 194.714844 -10.273438 189.464844 -10.273438 185.839844 -7.265625 C 182.21875 -4.257812 181.253906 0.90625 183.542969 5.019531 L 32.523438 275.660156 C 29.976562 280.222656 31.464844 285.980469 35.898438 288.742188 L 186.917969 382.707031 C 190.085938 384.671875 194.09375 384.671875 197.261719 382.707031 L 348.28125 288.742188 C 352.714844 285.980469 354.203125 280.222656 351.65625 275.660156 Z M 238.644531 197.078125 C 242 202.175781 244.222656 211.679688 246.183594 220.0625 C 248.085938 228.191406 249.882812 235.871094 253.011719 241.554688 C 259.796875 253.898438 270.054688 259.972656 271.203125 260.625 C 271.511719 260.800781 271.828125 260.960938 272.148438 261.109375 L 320.414062 283.019531 L 203.863281 355.539062 L 203.863281 314.15625 C 203.863281 313.984375 203.855469 313.746094 203.847656 313.574219 C 203.703125 310.261719 204.433594 305.835938 205.132812 304.832031 C 206.328125 303.757812 210.984375 300.867188 214.726562 298.542969 C 225.570312 291.808594 240.425781 282.578125 249.796875 271.902344 C 251.183594 270.328125 252.40625 268.660156 253.617188 266.984375 C 248.988281 262.855469 243.601562 256.949219 239.292969 249.109375 C 238.917969 248.425781 238.636719 247.675781 238.296875 246.972656 C 236.667969 250.410156 234.671875 253.53125 232.148438 256.402344 C 225.070312 264.460938 211.925781 272.628906 202.328125 278.589844 C 196.441406 282.246094 192.1875 284.894531 189.457031 287.335938 C 180.199219 295.628906 180.207031 310.648438 180.371094 314.433594 L 180.371094 355.574219 L 63.769531 283.019531 L 101.269531 266 C 101.390625 265.949219 101.578125 265.859375 101.699219 265.800781 C 103.191406 265.058594 107.996094 263.136719 112.238281 263.136719 C 116.050781 263.136719 127.066406 268.144531 135.03125 274.355469 C 147.09375 283.769531 157.777344 290.34375 167.339844 294.351562 C 169.394531 287.847656 172.941406 281.101562 179.011719 275.667969 C 179.519531 275.214844 180.097656 274.777344 180.644531 274.332031 C 174.328125 272.371094 164.386719 267.46875 149.480469 255.835938 C 142.304688 250.234375 125.285156 239.648438 112.238281 239.648438 C 102.238281 239.648438 93.316406 243.742188 91.371094 244.699219 L 65.71875 256.339844 L 180.34375 50.929688 L 180.34375 131.320312 C 180.34375 131.492188 180.351562 131.730469 180.359375 131.902344 C 180.503906 135.210938 179.773438 139.640625 179.074219 140.640625 C 177.878906 141.71875 173.222656 144.609375 169.480469 146.933594 C 158.636719 153.667969 143.78125 162.898438 134.410156 173.574219 C 122.210938 187.464844 117.972656 203.316406 116.8125 224.261719 C 124.941406 225.148438 133.078125 228.199219 140.042969 231.640625 C 140.636719 209.589844 143.929688 198.332031 152.058594 189.074219 C 159.136719 181.015625 172.28125 172.847656 181.878906 166.886719 C 187.769531 163.226562 192.019531 160.582031 194.753906 158.136719 C 204.007812 149.84375 204 134.828125 203.835938 131.042969 L 203.835938 50.929688 L 318.457031 256.332031 L 282.566406 240.039062 C 281.273438 239.175781 276.683594 235.855469 273.59375 230.238281 C 272.023438 227.375 270.449219 220.648438 269.058594 214.710938 C 266.652344 204.421875 263.921875 192.761719 258.269531 184.167969 C 250.785156 172.785156 238.820312 158.347656 216.90625 150.972656 C 214.863281 157.535156 211.308594 164.332031 205.195312 169.808594 C 204.554688 170.382812 203.84375 170.933594 203.140625 171.488281 C 222.105469 175.707031 231.738281 186.585938 238.644531 197.078125 Z M 238.644531 197.078125 "/>
  </g>
</svg>

<svg xmlns="http://www.w3.org/2000/svg" viewBox="0 0 384 384"><path d="M351.656 275.66L200.636 5.02a9.782 9.782 0 10-17.093 0L32.523 275.66a9.793 9.793 0 003.375 13.082l151.02 93.965a9.812 9.812 0 0010.344 0l151.02-93.965c4.433-2.762 5.921-8.52 3.374-13.082zm-113.011-78.582c3.355 5.098 5.578 14.602 7.539 22.984 1.902 8.13 3.699 15.81 6.828 21.493 6.785 12.343 17.043 18.418 18.191 19.07.309.176.625.336.945.484l48.266 21.91-116.55 72.52v-41.383c0-.172-.009-.41-.016-.582-.145-3.312.586-7.738 1.285-8.742 1.195-1.074 5.851-3.965 9.594-6.289 10.843-6.734 25.699-15.965 35.07-26.64 1.387-1.575 2.61-3.243 3.82-4.919-4.629-4.129-10.015-10.035-14.324-17.875-.375-.683-.656-1.433-.996-2.136-1.629 3.437-3.625 6.558-6.149 9.43-7.078 8.058-20.222 16.226-29.82 22.187-5.887 3.656-10.14 6.305-12.871 8.746-9.258 8.293-9.25 23.312-9.086 27.098v41.14L63.77 283.02l37.5-17.02c.12-.05.308-.14.43-.2 1.491-.741 6.296-2.663 10.538-2.663 3.813 0 14.828 5.008 22.793 11.218 12.063 9.415 22.746 15.989 32.309 19.997 2.055-6.504 5.601-13.25 11.672-18.684.508-.453 1.086-.89 1.633-1.336-6.317-1.96-16.258-6.863-31.165-18.496-7.175-5.602-24.195-16.188-37.242-16.188-10 0-18.922 4.094-20.867 5.051L65.72 256.34 180.344 50.93v80.391c0 .172.008.41.015.582.145 3.309-.586 7.739-1.285 8.739-1.195 1.078-5.851 3.968-9.594 6.293-10.843 6.734-25.699 15.964-35.07 26.64-12.2 13.89-16.437 29.742-17.597 50.688 8.128.886 16.265 3.937 23.23 7.379.594-22.051 3.887-33.309 12.016-42.567 7.078-8.058 20.222-16.226 29.82-22.187 5.89-3.66 10.14-6.305 12.875-8.75 9.254-8.293 9.246-23.309 9.082-27.094V50.93l114.621 205.402-35.89-16.293c-1.294-.863-5.883-4.184-8.973-9.8-1.57-2.864-3.145-9.59-4.535-15.528-2.407-10.29-5.137-21.95-10.79-30.543-7.484-11.383-19.449-25.82-41.363-33.195-2.043 6.562-5.597 13.359-11.71 18.836-.641.574-1.352 1.125-2.055 1.68 18.964 4.218 28.597 15.097 35.504 25.59zm0 0"/></svg>
